src/assets/icons/weeks,simple,40.svg

<svg width="48" height="48" viewBox="0 0 48 48" fill="none" xmlns="http://www.w3.org/2000/svg">
<rect opacity="0.2" x="5" y="5" width="38" height="38" rx="4" fill="black"/>
<path d="M5 13C5 9.22876 5 7.34315 6.17157 6.17157C7.34315 5 9.22876 5 13 5H35C38.7712 5 40.6569 5 41.8284 6.17157C43 7.34315 43 9.22876 43 13V15H5V13Z" fill="black"/>
<path d="M8.75604 34.9318H17.1339V38H20.6623V34.9318H22.8271V31.9744H20.6623V20.5455H16.043L8.75604 32.0256V34.9318ZM17.2021 31.9744H12.4719V31.8381L17.0657 24.5682H17.2021V31.9744ZM32.1296 38.3835C36.5188 38.3835 39.1694 35.0426 39.1779 29.2898C39.1864 23.5795 36.5018 20.3068 32.1296 20.3068C27.7489 20.3068 25.0898 23.571 25.0813 29.2898C25.0643 35.0256 27.7319 38.375 32.1296 38.3835ZM32.1296 35.3239C30.1268 35.3239 28.8313 33.3125 28.8398 29.2898C28.8484 25.3267 30.1353 23.3324 32.1296 23.3324C34.1154 23.3324 35.4109 25.3267 35.4109 29.2898C35.4194 33.3125 34.1239 35.3239 32.1296 35.3239Z" fill="black"/>
</svg>

<svg xmlns="http://www.w3.org/2000/svg" width="48" height="48" fill="none" viewBox="0 0 48 48">
  <rect width="38" height="38" x="5" y="5" fill="#000" opacity=".2" rx="4"/>
  <path fill="#000" d="M5 13c0-3.771 0-5.657 1.172-6.828C7.343 5 9.229 5 13 5h22c3.771 0 5.657 0 6.828 1.172C43 7.343 43 9.229 43 13v2H5v-2zM8.756 34.932h8.378V38h3.528v-3.068h2.165v-2.958h-2.165V20.546h-4.619l-7.287 11.48v2.906zm8.446-2.958h-4.73v-.136l4.594-7.27h.136v7.406zm14.928 6.41c4.389 0 7.04-3.341 7.048-9.094.008-5.71-2.676-8.983-7.048-8.983-4.381 0-7.04 3.264-7.049 8.983-.017 5.736 2.65 9.085 7.049 9.093zm0-3.06c-2.003 0-3.299-2.011-3.29-6.034.008-3.963 1.295-5.958 3.29-5.958 1.985 0 3.28 1.995 3.28 5.958.01 4.023-1.286 6.034-3.28 6.034z"/>
</svg>
